X:36
T:Wise Maid, The
T:Doherty's
M:C|
C:Johnny Doherty
R:reel
K:D
~F3 G FEDE|FAAB AFED|d2 (3efg fdec|dBAF BE ~E2|~F3 G FEDE|FAAB AFED|
d2 (3efg fdec|dBAG FD ~D2:: d2 AG FDFA|dfaf gfeg|fAdf eAce|
dfed cA~A2|BDGB ADFA|dfaf gfed|(3Bcd ce dBAG|FAEA D4 :|
% Posts.abc
% Downloaded from www.lesession.co.uk
% This file originally started as a collection of the tunes
% I've posted to mailing lists and Usenet. After a while it
% became a bit of a general 'good tune' file ...
%
% Please feel free to recycle any of the tunes here, but
% I would ask you to leave all existing headers in the tune.
%
% Some of these tunes are duplicated in other abc files
% available from the LeSession site.
%
%
<end>
<start>
